X:1
T:Title
%%score ( 1 2 ) 3
L:1/8
Q:1/4=130
M:3/4
K:Ab
V:1 treble nm="Grand Piano, Soprano"
V:2 treble 
V:3 bass nm="Choir Pad, Adullam, P. H. Dayhoff 1882"
V:1
 [CE]2 [CA]4 | [CA]2 [Ec]4 | [EA]2 [DF]4 | [DF]2 [FA]4 | [DF]2 [CE]4 | EA [B,G]2 [CA]2 | %6
w: By~Peter~Henry~Dayoff,~1882 *||||||
 [DB]2 [CA]4 | [Ec]2 [Ec]4 | [DB]2 [CA]4 | E2 [DF]2 [FA]2 | [DF]2 [CE]4 | [CE]2 [DF]2 [FA]2 | %12
w: ||||||
 AB [Ec]4 | [DB]2 [CA]4- | [CA]4 z2 |] %15
w: |||
V:2
 x6 | x6 | x6 | x6 | x6 | C2 z2 z2 | x6 | x6 | x6 | x6 | x6 | x6 | F2 z2 z2 | x6 | x6 |] %15
V:3
 [A,,E,]2 [A,,E,]4 | [A,,E,]2 [A,,A,]4 | [C,A,]2 [D,A,]4 | [D,A,]2 [D,A,]4 | [D,A,]2 [E,A,]4 | %5
 E,2 E,4 | E,2 [A,,E,]4 | A,2 A,4 | [E,G,]2 [F,A,]4 | [C,A,]2 [D,A,]4 | [D,A,]2 [A,,A,]4 | %11
 [A,,A,]2 [D,A,]4 | [D,A,]2 [E,A,]4 | [E,G,]2 [A,,A,]4- | [A,,A,]4 z2 |] %15

